polaris-icons/icons/EyeCheckMarkIcon.svg

<svg xmlns="http://www.w3.org/2000/svg" viewBox="0 0 20 20"><path d="M4.77896 9.16549C4.55757 9.61808 4.5 9.91816 4.5 10C4.5 10.0818 4.55757 10.3819 4.77896 10.8345C4.98809 11.262 5.31225 11.7605 5.76168 12.2332C6.65224 13.1699 8.02612 14 10 14C10.4142 14 10.75 14.3358 10.75 14.75C10.75 15.1642 10.4142 15.5 10 15.5C7.5556 15.5 5.80448 14.4551 4.67461 13.2668C4.11382 12.677 3.70392 12.0505 3.43153 11.4936C3.1714 10.9618 3 10.4182 3 10C3 9.58184 3.1714 9.03816 3.43153 8.50638C3.70392 7.94953 4.11382 7.32302 4.67461 6.73321C5.80448 5.54486 7.5556 4.5 10 4.5C12.4322 4.5 14.1197 5.47224 15.224 6.60034C16.3073 7.7069 16.8244 8.9552 16.9776 9.5681C17.0781 9.96994 16.8337 10.3771 16.4319 10.4776C16.0301 10.5781 15.6229 10.3337 15.5224 9.9319C15.4256 9.5448 15.0268 8.5431 14.1522 7.64966C13.2986 6.77776 11.9861 6 10 6C8.02612 6 6.65224 6.83014 5.76168 7.76679C5.31225 8.23948 4.98809 8.73797 4.77896 9.16549Z"/>
<path fill-rule="evenodd" d="M10 13C11.6569 13 13 11.6569 13 10C13 8.34315 11.6569 7 10 7C8.34315 7 7 8.34315 7 10C7 11.6569 8.34315 13 10 13ZM10 11.5C10.8284 11.5 11.5 10.8284 11.5 10C11.5 9.17157 10.8284 8.5 10 8.5C9.17157 8.5 8.5 9.17157 8.5 10C8.5 10.8284 9.17157 11.5 10 11.5Z"/>
<path d="M17.5303 13.2803C17.8232 12.9874 17.8232 12.5126 17.5303 12.2197C17.2374 11.9268 16.7626 11.9268 16.4697 12.2197L14 14.6893L13.0303 13.7197C12.7374 13.4268 12.2626 13.4268 11.9697 13.7197C11.6768 14.0126 11.6768 14.4874 11.9697 14.7803L13.4697 16.2803C13.7626 16.5732 14.2374 16.5732 14.5303 16.2803L17.5303 13.2803Z"/>
</svg>

<svg xmlns="http://www.w3.org/2000/svg" viewBox="0 0 20 20"><path d="M4.779 9.165c-.221.453-.279.753-.279.835 0 .082.058.382.279.835.21.427.533.925.983 1.398.89.937 2.264 1.767 4.238 1.767.414 0 .75.336.75.75s-.336.75-.75.75c-2.444 0-4.196-1.045-5.325-2.233-.561-.59-.971-1.216-1.243-1.773-.26-.532-.432-1.076-.432-1.494 0-.418.171-.962.432-1.494.272-.556.682-1.183 1.243-1.773 1.13-1.188 2.88-2.233 5.325-2.233 2.432 0 4.12.972 5.224 2.1 1.083 1.107 1.6 2.355 1.754 2.968.1.402-.144.81-.546.91-.402.1-.81-.144-.91-.546-.096-.387-.495-1.389-1.37-2.282-.853-.872-2.166-1.65-4.152-1.65-1.974 0-3.348.83-4.238 1.767-.45.472-.774.971-.983 1.398Z"/><path fill-rule="evenodd" d="M10 13c1.657 0 3-1.343 3-3s-1.343-3-3-3-3 1.343-3 3 1.343 3 3 3Zm0-1.5c.828 0 1.5-.672 1.5-1.5s-.672-1.5-1.5-1.5-1.5.672-1.5 1.5.672 1.5 1.5 1.5Z"/><path d="M17.53 13.28c.293-.293.293-.767 0-1.06-.293-.293-.767-.293-1.06 0l-2.47 2.47-.97-.97c-.293-.293-.767-.293-1.06 0-.293.293-.293.767 0 1.06l1.5 1.5c.293.293.767.293 1.06 0l3-3Z"/></svg>
